src/lib/images/swap/cog.svg

<?xml version="1.0" encoding="UTF-8" standalone="no"?>
<svg
   width="36"
   height="36"
   viewBox="0 0 36 36"
   fill="none"
   version="1.1"
   id="svg1"
   sodipodi:docname="cog.svg"
   inkscape:version="1.4 (1:1.4+202410161351+e7c3feb100)"
   xmlns:inkscape="http://www.inkscape.org/namespaces/inkscape"
   xmlns:sodipodi="http://sodipodi.sourceforge.net/DTD/sodipodi-0.dtd"
   xmlns="http://www.w3.org/2000/svg"
   xmlns:svg="http://www.w3.org/2000/svg">
  <sodipodi:namedview
     id="namedview1"
     pagecolor="#505050"
     bordercolor="#eeeeee"
     borderopacity="1"
     inkscape:showpageshadow="0"
     inkscape:pageopacity="0"
     inkscape:pagecheckerboard="0"
     inkscape:deskcolor="#505050"
     inkscape:zoom="31.972222"
     inkscape:cx="17.984361"
     inkscape:cy="18"
     inkscape:window-width="3440"
     inkscape:window-height="1353"
     inkscape:window-x="0"
     inkscape:window-y="0"
     inkscape:window-maximized="1"
     inkscape:current-layer="svg1" />
  <path
     d="m 34.9213,21.945 -3.309,-2.5875 c 0.042,-0.399 0.078,-0.8655 0.078,-1.359 0,-0.4935 -0.0345,-0.96 -0.078,-1.359 l 3.312,-2.589 c 0.6151,-0.486 0.783,-1.3485 0.3915,-2.0669 L 31.8748,6.03 C 31.5073,5.35802 30.7018,5.013 29.8843,5.3145 L 25.9798,6.88198 C 25.2313,6.34198 24.4468,5.886 23.6353,5.5215 L 23.0413,1.38002 C 22.9438,0.594 22.2598,0 21.4513,0 h -6.8999 c -0.8086,0 -1.491,0.594 -1.5871,1.368 L 12.3689,5.52452 C 11.5828,5.87855 10.8104,6.32855 10.0289,6.885 L 6.11387,5.31302 C 5.3803,5.02952 4.5028,5.34748 4.1383,6.0165 l -3.445455,5.961 c -0.406476,0.687 -0.2385,1.5795 0.390025,2.0775 l 3.30898,2.5875 c -0.05253,0.5055 -0.07798,0.945 -0.07798,1.3576 0,0.4125 0.02552,0.8519 0.07798,1.359 l -3.312,2.5889 c -0.615028,0.4875 -0.781528,1.35 -0.390028,2.067 l 3.441028,5.9535 c 0.36752,0.6705 1.16549,1.0185 1.99047,0.7155 l 3.90448,-1.5675 c 0.747,0.5386 1.5315,0.9945 2.3431,1.3605 l 0.594,4.14 C 13.0603,35.406 13.7428,36 14.5528,36 h 6.9 c 0.8085,0 1.4925,-0.594 1.5885,-1.368 l 0.5955,-4.155 c 0.786,-0.3555 1.557,-0.804 2.34,-1.362 l 3.915,1.572 c 0.189,0.0735 0.3855,0.111 0.588,0.111 0.582,0 1.1175,-0.318 1.3875,-0.813 L 35.3233,24 c 0.384,-0.702 0.216,-1.5645 -0.402,-2.055 z M 18.0013,24 c -3.309,0 -6,-2.691 -6,-6 0,-3.309 2.691,-6 6,-6 3.309,0 6,2.691 6,6 0,3.309 -2.691,6 -6,6 z"
     fill="#ff02d1"
     id="path1"
     style="fill:#c54b8c;fill-opacity:1" />
  <defs
     id="defs1" />
</svg>

<?xml version="1.0" encoding="UTF-8" standalone="no"?>

<svg width="36" height="36" viewBox="0 0 36 36" fill="none" xmlns="http://www.w3.org/2000/svg">
    <g clip-path="url(#clip0_83_329)">
        <path
            d="M34.9213 21.945L31.6123 19.3575C31.6543 18.9585 31.6903 18.492 31.6903 17.9985C31.6903 17.505 31.6558 17.0385 31.6123 16.6395L34.9243 14.0505C35.5394 13.5645 35.7073 12.702 35.3158 11.9836L31.8748 6.03C31.5073 5.35802 30.7018 5.013 29.8843 5.3145L25.9798 6.88198C25.2313 6.34198 24.4468 5.886 23.6353 5.5215L23.0413 1.38002C22.9438 0.594 22.2598 0 21.4513 0H14.5514C13.7428 0 13.0604 0.594 12.9643 1.368L12.3689 5.52452C11.5828 5.87855 10.8104 6.32855 10.0289 6.885L6.11387 5.31302C5.3803 5.02952 4.5028 5.34748 4.1383 6.0165L0.692845 11.9775C0.286369 12.6645 0.454345 13.557 1.08287 14.055L4.39185 16.6425C4.33932 17.148 4.31387 17.5875 4.31387 18.0001C4.31387 18.4126 4.33939 18.852 4.39185 19.3591L1.07985 21.948C0.464822 22.4355 0.298322 23.298 0.689822 24.015L4.13085 29.9685C4.49837 30.639 5.29634 30.987 6.12132 30.684L10.0258 29.1165C10.7728 29.6551 11.5573 30.111 12.3689 30.477L12.9629 34.617C13.0603 35.406 13.7428 36 14.5528 36H21.4528C22.2613 36 22.9453 35.406 23.0413 34.632L23.6368 30.477C24.4228 30.1215 25.1938 29.673 25.9768 29.115L29.8918 30.687C30.0808 30.7605 30.2773 30.798 30.4798 30.798C31.0618 30.798 31.5973 30.48 31.8673 29.985L35.3233 24C35.7073 23.298 35.5393 22.4355 34.9213 21.945ZM18.0013 24C14.6923 24 12.0013 21.309 12.0013 18C12.0013 14.691 14.6923 12 18.0013 12C21.3103 12 24.0013 14.691 24.0013 18C24.0013 21.309 21.3103 24 18.0013 24Z"
            fill="#FF02D1" />
    </g>
    <defs>
        <clipPath id="clip0_83_329">
            <rect width="36" height="36" fill="white" />
        </clipPath>
    </defs>
</svg>
